X: 1
T: Morrison's
R: Jig
M: 6/8
L: 1/8
K: Edor
|:E3 BEB|EBE AFD|E3 B2c|dcB AFD|
E3 BEB|EBE AFD|G3 FGA|dAG FED:|
Bee fee|aee fed|Bee fee|a2g fed|
Bee fee|aee fef|gfe d2A|BAG FGA|
Bee fee|aee fed|Bee fee|faf def|
g3 gfe|def g2d|edc d2A|BAG FED|